Numix-Circle/48x48/apps/goa-account-owncloud.svg

<svg width="48" xmlns="http://www.w3.org/2000/svg" height="48" viewBox="0 0 48 48" xmlns:xlink="http://www.w3.org/1999/xlink">
<g style="fill:#1c2d44;stroke:#f9f9f9">
<path d="M 308.813171 78.917457 C 308.813171 90.129187 299.733053 99.236988 288.493639 99.236988 C 277.254226 99.236988 268.174108 90.129187 268.174108 78.917457 C 268.174108 67.678043 277.254226 58.570242 288.493639 58.570242 C 299.733053 58.570242 308.813171 67.678043 308.813171 78.917457 Z " transform="matrix(.14111 0 0 .14111 -24.94227 7.7667)"/>
<path d="M 288.465956 149.565201 C 288.465956 170.133883 271.772935 186.826904 251.204254 186.826904 C 230.635573 186.826904 213.970235 170.133883 213.970235 149.565201 C 213.970235 128.99652 230.635573 112.331182 251.204254 112.331182 C 271.772935 112.331182 288.465956 128.99652 288.465956 149.565201 Z " transform="matrix(.14111 0 0 .14111 -24.94227 7.7667)"/>
<path d="M 333.478978 124.788661 C 333.478978 147.018339 315.45716 165.067841 293.227481 165.067841 C 270.997803 165.067841 252.975984 147.018339 252.975984 124.788661 C 252.975984 102.558983 270.997803 84.537164 293.227481 84.537164 C 315.45716 84.537164 333.478978 102.558983 333.478978 124.788661 Z " transform="matrix(.14111 0 0 .14111 -24.94227 7.7667)"/>
<path d="M 412.570125 108.483206 C 412.570125 129.051887 395.904787 145.717225 375.336106 145.717225 C 354.767425 145.717225 338.102087 129.051887 338.102087 108.483206 C 338.102087 87.914525 354.767425 71.221503 375.336106 71.221503 C 395.904787 71.221503 412.570125 87.914525 412.570125 108.483206 Z " transform="matrix(.14111 0 0 .14111 -24.94227 7.7667)"/>
<path d="M 371.737279 79.498806 C 371.737279 100.067487 355.071941 116.732825 334.50326 116.732825 C 313.934579 116.732825 297.241558 100.067487 297.241558 79.498806 C 297.241558 58.930125 313.934579 42.264787 334.50326 42.264787 C 355.071941 42.264787 371.737279 58.930125 371.737279 79.498806 Z " transform="matrix(.14111 0 0 .14111 -24.94227 7.7667)"/>
<path d="M 479.729776 163.96051 C 479.729776 175.725906 470.179042 185.248956 458.413646 185.248956 C 446.675933 185.248956 437.125199 175.725906 437.125199 163.96051 C 437.125199 152.195114 446.675933 142.64438 458.413646 142.64438 C 470.179042 142.64438 479.729776 152.195114 479.729776 163.96051 Z " transform="matrix(.14111 0 0 .14111 -24.94227 7.7667)"/>
<path d="M 453.430654 147.572005 C 453.430654 169.801683 435.408836 187.823502 413.151474 187.823502 C 390.921796 187.823502 372.899977 169.801683 372.899977 147.572005 C 372.899977 125.314643 390.921796 107.292824 413.151474 107.292824 C 435.408836 107.292824 453.430654 125.314643 453.430654 147.572005 Z " transform="matrix(.14111 0 0 .14111 -24.94227 7.7667)"/>
<path d="M 312.052115 166.009073 C 312.052115 177.774469 302.529065 187.29752 290.763669 187.29752 C 278.998273 187.29752 269.475222 177.774469 269.475222 166.009073 C 269.475222 154.243677 278.998273 144.720626 290.763669 144.720626 C 302.529065 144.720626 312.052115 154.243677 312.052115 166.009073 Z " transform="matrix(.14111 0 0 .14111 -24.94227 7.7667)"/>
<path d="M 166.583333 -64.479167 C 166.583333 -43.145833 149.270833 -25.854167 127.9375 -25.854167 C 106.604167 -25.854167 89.3125 -43.145833 89.3125 -64.479167 C 89.3125 -85.8125 106.604167 -103.104167 127.9375 -103.104167 C 149.270833 -103.104167 166.583333 -85.8125 166.583333 -64.479167 Z " transform="matrix(.1875 0 0 .1875 0 39)"/>
</g>
</svg>

<svg xmlns="http://www.w3.org/2000/svg" viewBox="0 0 48 48">
 <g style="fill:#1c2d44;stroke:#f9f9f9">
  <path d="m 308.81 78.917 c 0 11.212 -9.08 20.32 -20.32 20.32 c -11.239 0 -20.32 -9.108 -20.32 -20.32 c 0 -11.239 9.08 -20.347 20.32 -20.347 c 11.239 0 20.32 9.108 20.32 20.347 Z" transform="matrix(.14111 0 0 .14111 -24.94227 7.7667)"/>
  <path d="m 288.47 149.57 c 0 20.569 -16.693 37.26 -37.26 37.26 c -20.569 0 -37.23 -16.693 -37.23 -37.26 c 0 -20.569 16.665 -37.23 37.23 -37.23 c 20.569 0 37.26 16.665 37.26 37.23 Z" transform="matrix(.14111 0 0 .14111 -24.94227 7.7667)"/>
  <path d="m 333.48 124.79 c 0 22.23 -18.02 40.28 -40.25 40.28 c -22.23 0 -40.25 -18.05 -40.25 -40.28 c 0 -22.23 18.02 -40.25 40.25 -40.25 c 22.23 0 40.25 18.02 40.25 40.25 Z" transform="matrix(.14111 0 0 .14111 -24.94227 7.7667)"/>
  <path d="m 412.57 108.48 c 0 20.569 -16.665 37.23 -37.23 37.23 c -20.569 0 -37.23 -16.665 -37.23 -37.23 c 0 -20.569 16.665 -37.26 37.23 -37.26 c 20.569 0 37.23 16.693 37.23 37.26 Z" transform="matrix(.14111 0 0 .14111 -24.94227 7.7667)"/>
  <path d="m 371.74 79.5 c 0 20.569 -16.665 37.23 -37.23 37.23 c -20.569 0 -37.26 -16.665 -37.26 -37.23 c 0 -20.569 16.693 -37.23 37.26 -37.23 c 20.569 0 37.23 16.665 37.23 37.23 Z" transform="matrix(.14111 0 0 .14111 -24.94227 7.7667)"/>
  <path d="m 479.73 163.96 c 0 11.765 -9.551 21.288 -21.316 21.288 c -11.738 0 -21.288 -9.523 -21.288 -21.288 c 0 -11.765 9.551 -21.316 21.288 -21.316 c 11.765 0 21.316 9.551 21.316 21.316 Z" transform="matrix(.14111 0 0 .14111 -24.94227 7.7667)"/>
  <path d="m 453.43 147.57 c 0 22.23 -18.02 40.25 -40.28 40.25 c -22.23 0 -40.25 -18.02 -40.25 -40.25 c 0 -22.257 18.02 -40.28 40.25 -40.28 c 22.257 0 40.28 18.02 40.28 40.28 Z" transform="matrix(.14111 0 0 .14111 -24.94227 7.7667)"/>
  <path d="m 312.05 166.01 c 0 11.765 -9.523 21.288 -21.288 21.288 c -11.765 0 -21.288 -9.523 -21.288 -21.288 c 0 -11.765 9.523 -21.288 21.288 -21.288 c 11.765 0 21.288 9.523 21.288 21.288 Z" transform="matrix(.14111 0 0 .14111 -24.94227 7.7667)"/>
  <path d="m 166.58 -64.48 c 0 21.333 -17.313 38.625 -38.646 38.625 c -21.333 0 -38.625 -17.292 -38.625 -38.625 c 0 -21.333 17.292 -38.625 38.625 -38.625 c 21.333 0 38.646 17.292 38.646 38.625 Z" transform="matrix(.1875 0 0 .1875 0 39)"/>
 </g>
</svg>
